X:285
T:Shetland fiddler
R:Reel
S:My arrangement from various sources
Z:Transcription, arrangement, chords:Mike Long
M:C|
L:1/8
K:D
Ac|\
"D"d2fd "A"Adfe|"D"defg afdf|"Em"e2ge Bege|"A"cdef gece|\
"D"d2fd "A"Adfe|
"D"defg afdf|(3(fga) fd (3(fga) fd|"G"Bg"A"ec "D"d2:|\
|:cd|\
"A"eAfA "G"gAaA|"A"eaaf gfed|
"A"AeBe "G"cede|"A"efed cABc|\
"D"dAeA "A"fAgA|"D"faaf gfed|(3(fga) fd (3(fga) fd|"G"Bg"A"ec "D"d2:|
